assets/img/link/logo-redbubble.svg

<svg fill="none" height="24" viewBox="0 0 24 24" width="24" xmlns="http://www.w3.org/2000/svg" xmlns:xlink="http://www.w3.org/1999/xlink"><clipPath id="a"><path d="m0 0h24v24h-24z"/></clipPath><g clip-path="url(#a)"><path d="m16.6331 16.3247h-3.1989c-.0851-.0002-.1667-.0342-.2267-.0945-.0601-.0604-.0937-.1421-.0935-.2272v-8.02865c0-.17737.1436-.32099.3202-.32099h2.9658c2.2257 0 2.6927 1.31063 2.6927 2.40934 0 .6357-.1687 1.1404-.5038 1.5108.8162.3367 1.2557 1.0956 1.2557 2.1935 0 1.6018-1.2008 2.5577-3.2115 2.5577zm-4.6445 0h-6.64405c-.04211-.0001-.0838-.0086-.12266-.0248s-.07413-.04-.1038-.0699-.05316-.0653-.06911-.1043-.02405-.0807-.02384-.1228v-8.02863c0-.17737.14283-.32099.31941-.32099h3.10392c1.93843 0 3.09523 1.0438 3.09523 2.79232 0 1.1631-.5846 2.0767-1.5272 2.4478l2.2108 2.8968c.0406.0463.067.1033.0761.1642s.0006.1232-.0246.1793c-.0253.0562-.066.104-.1176.1377s-.1117.0519-.1733.0524m.0118-16.3238c-6.62667 0-11.9997 5.37279-11.9997 11.9997 0 6.6285 5.37279 12.0015 12.0003 12.0015 6.6275 0 11.9997-5.3728 11.9997-12.0003 0-6.62751-5.3712-11.99969919-11.9991-11.99969919" fill="#fcf5eb"/></g></svg>

<svg width="24" height="24" viewBox="0 0 24 24" fill="none" xmlns="http://www.w3.org/2000/svg">
<g clip-path="url(#clip0_3387_1157)">
<path d="M16.6331 16.3247H13.4342C13.3491 16.3245 13.2675 16.2905 13.2075 16.2302C13.1474 16.1698 13.1138 16.0881 13.114 16.003V7.97435C13.114 7.79698 13.2576 7.65336 13.4342 7.65336H16.4C18.6257 7.65336 19.0927 8.96399 19.0927 10.0627C19.0927 10.6984 18.924 11.2031 18.5889 11.5735C19.4051 11.9102 19.8446 12.6691 19.8446 13.767C19.8446 15.3688 18.6438 16.3247 16.6331 16.3247ZM11.9886 16.3247H5.34455C5.30244 16.3246 5.26075 16.3161 5.22189 16.2999C5.18303 16.2837 5.14776 16.2599 5.11809 16.23C5.08842 16.2001 5.06493 16.1647 5.04898 16.1257C5.03303 16.0867 5.02493 16.045 5.02514 16.0029V7.97427C5.02514 7.7969 5.16797 7.65328 5.34455 7.65328H8.44847C10.3869 7.65328 11.5437 8.69708 11.5437 10.4456C11.5437 11.6087 10.9591 12.5223 10.0165 12.8934L12.2273 15.7902C12.2679 15.8365 12.2943 15.8935 12.3034 15.9544C12.3125 16.0153 12.304 16.0776 12.2788 16.1337C12.2535 16.1899 12.2128 16.2377 12.1612 16.2714C12.1096 16.3051 12.0495 16.3233 11.9879 16.3238M11.9997 0C5.37303 0 0 5.37279 0 11.9997C0 18.6282 5.37279 24.0012 12.0003 24.0012C18.6278 24.0012 24 18.6284 24 12.0009C24 5.37339 18.6288 0.00120081 12.0009 0.00120081" fill="#FCF5EB"/>
</g>
<defs>
<clipPath id="clip0_3387_1157">
<rect width="24" height="24" fill="white"/>
</clipPath>
</defs>
</svg>
